themes/2023/icons/webpack.svg

<svg width="16" height="16" fill="none" xmlns="http://www.w3.org/2000/svg"><g fill-rule="evenodd" clip-rule="evenodd"><path d="M7.876 3a.603.603 0 0 0-.33.09L2.972 5.337a.498.498 0 0 0-.306.446v5.436c0 .193.12.36.306.446l4.574 2.245a.61.61 0 0 0 .33.091c.122 0 .238-.03.33-.09l4.574-2.246a.498.498 0 0 0 .307-.446V5.782a.498.498 0 0 0-.307-.446L8.206 3.091A.603.603 0 0 0 7.876 3Zm0 1.088L11.93 6.08v1.064h-.01v3.503h.01v.273l-4.053 1.992-4.053-1.992V6.08l4.053-1.992ZM5.04 6.57l2.836-1.43 2.837 1.43-2.837 1.432L5.04 6.571Zm-.058 1.138v1.81l2.316 1.168v-1.81L4.981 7.708Zm3.474 1.167 2.316-1.167v1.81l-2.316 1.168v-1.81Z" fill="#89DDFF"/><path d="M7.876 5.14 5.04 6.57l2.837 1.432 2.837-1.431L7.876 5.14ZM4.981 7.709v2.696l2.316 1.167V8.876L4.981 7.71Zm3.474 1.167 2.316-1.167v2.696l-2.316 1.167V8.876Z" fill="#3965BD"/></g></svg>

<?xml version="1.0" encoding="UTF-8" standalone="no"?>
<svg
   width="16"
   height="16"
   fill="none"
   version="1.1"
   id="svg2"
   sodipodi:docname="webpack.svg"
   inkscape:version="1.3.2 (091e20e, 2023-11-25, custom)"
   xmlns:inkscape="http://www.inkscape.org/namespaces/inkscape"
   xmlns:sodipodi="http://sodipodi.sourceforge.net/DTD/sodipodi-0.dtd"
   xmlns="http://www.w3.org/2000/svg"
   xmlns:svg="http://www.w3.org/2000/svg">
  <defs
     id="defs2" />
  <sodipodi:namedview
     id="namedview2"
     pagecolor="#ffffff"
     bordercolor="#000000"
     borderopacity="0.25"
     inkscape:showpageshadow="2"
     inkscape:pageopacity="0.0"
     inkscape:pagecheckerboard="0"
     inkscape:deskcolor="#d1d1d1"
     inkscape:zoom="50.8125"
     inkscape:cx="8"
     inkscape:cy="7.9803198"
     inkscape:window-width="1920"
     inkscape:window-height="1057"
     inkscape:window-x="1912"
     inkscape:window-y="-8"
     inkscape:window-maximized="1"
     inkscape:current-layer="svg2" />
  <g
     fill-rule="evenodd"
     clip-rule="evenodd"
     id="g2"
     transform="matrix(1.2325586,0,0,1.2325586,-1.8317478,-1.9768567)">
    <path
       d="M 7.876,3 A 0.603,0.603 0 0 0 7.546,3.09 L 2.972,5.337 A 0.498,0.498 0 0 0 2.666,5.783 v 5.436 c 0,0.193 0.12,0.36 0.306,0.446 l 4.574,2.245 a 0.61,0.61 0 0 0 0.33,0.091 c 0.122,0 0.238,-0.03 0.33,-0.09 l 4.574,-2.246 a 0.498,0.498 0 0 0 0.307,-0.446 V 5.782 A 0.498,0.498 0 0 0 12.78,5.336 L 8.206,3.091 A 0.603,0.603 0 0 0 7.876,3 Z m 0,1.088 4.054,1.992 v 1.064 h -0.01 v 3.503 h 0.01 V 10.92 L 7.877,12.912 3.824,10.92 V 6.08 L 7.877,4.088 Z M 5.04,6.57 7.876,5.14 10.713,6.57 7.876,8.002 5.04,6.571 Z M 4.982,7.708 v 1.81 l 2.316,1.168 V 8.876 L 4.981,7.708 Z m 3.474,1.167 2.316,-1.167 v 1.81 l -2.316,1.168 v -1.81 z"
       fill="#89ddff"
       id="path1" />
    <path
       d="M 7.876,5.14 5.04,6.57 7.877,8.002 10.714,6.571 Z M 4.981,7.709 v 2.696 l 2.316,1.167 V 8.876 L 4.981,7.71 Z m 3.474,1.167 2.316,-1.167 v 2.696 l -2.316,1.167 z"
       fill="#3965bd"
       id="path2" />
  </g>
</svg>
